X:1
T:A Soldier of the Cross
T:A Soldier of the Cross
T:Ira David Sankey, 1890
T:Isaac Watts, 1721-24, refrain by Ira Sankey
T:Public Domain Courtesy of the Cyber Hymnal™
C:Ira David Sankey, 1890
Z:Public Domain
Z:Courtesy of the Cyber Hymnal™
%%score ( 1 2 ) ( 3 4 )
L:1/8
Q:1/4=105
M:4/4
K:D
V:1 treble 
V:2 treble 
V:3 bass 
V:4 bass 
V:1
 D2 | [DF]2 [DF]2 [DG]>[DF] [DG]>[DB] | [DA]6 [DF]2 | [FA]2 [Fd]2 [Ec]2 [DB]2 | [CA]6 [EG]2 | %5
w: 1.~Am|I a sol- dier of the|cross— A|fol- lower of the|Lamb? And|
w: 2.~Must|I be car- ried to the|skies, On|flow- ery beds of|ease, While|
w: 3.~Are|there no foes for me to|face? Must|I not stem the|flood? Is|
w: 4.~Since|I must fight if I would|reign, In-|crease my cour- age,|Lord! I’ll|
 [DF]2 [DF]2 [DG]>[DF] [DG]>[GB] | [FA]6 D2 | [DF]2 [DG]2 [CE]3 D | D6 ||"^Refrain" A>d | %10
w: shall I fear to own His|cause, Or|blush to speak His|name?||
w: o- thers fought to win the|prize, And|sailed thro’ blood- y|seas?|In the|
w: this vile world a friend to|grace, To|help me on to|God?||
w: bear the toil, en- dure the|pain, Sup-|port- ed by Thy|Word.||
 (c2- c2-) [Ec]A B>c | z [Ac][Ad] x8 | [Ge]2 [Gd]2 [Ac]2 [GB]2 | [FA]6 [EG]2 | %14
w: ||||
w: name * of Christ the King,|* Who|hath pur- chased life|for me,|
w: ||||
w: ||||
 [DF]2 [DF]2 [DG]>[DF] [DG]>[GB] | [FA]6 D2 | [DF]2 [DG]2 [CE]3 D | D6 |] %18
w: ||||
w: Thro’ grace I’ll win the prom-|ised crown,|What- e’er my cross|may|
w: ||||
w: ||||
V:2
 D2 | x8 | x8 | x8 | x8 | x8 | x6 D2 | x7 D | D6 || x2 | x2 E3/2 E/ x4 | (d6 FF>F F2) | x8 | x8 | %14
 x8 | x6 D2 | x7 D | D6 |] %18
V:3
 [D,F,]2 | [D,A,]2 [D,A,]2 [D,B,]>[D,A,] [D,B,]>[D,G,] | [D,F,]6 [D,A,]2 | %3
w: ~|~ ~ ~ ~ ~ ~|~ ~|
 [D,D]2 [D,A,]2 [E,A,]2 [E,^G,]2 | [A,,A,]6 [A,,A,]2 | [D,A,]2 [D,A,]2 [D,B,]>[D,A,] [D,B,]>[D,D] | %6
w: ~ ~ ~ ~|~ ~|~ ~ ~ ~ ~ ~|
 [D,D]6 [D,F,]2 | [D,A,]2 [G,,B,]2 [A,,G,]3 [D,F,] | [D,F,]6 || z2 | z2 A,>A, A, z3 | %11
w: ~ ~|~ ~ ~ ~|~||In the name|
 z [D,A,] [D,A,]>[D,A,] [D,A,]2 [E,A,][F,C] x3 | [G,B,]2 [G,B,]2 [G,,D]2 [B,,D]2 | [D,D]6 [C,A,]2 | %14
w: of Christ the King, * *|||
 [D,A,]2 [D,A,]2 [D,B,]>[D,A,] [D,B,]>[D,D] | [D,D]6 [D,F,]2 | [D,A,]2 [G,,B,]2 [A,,G,]3 [D,F,] | %17
w: |||
 [D,F,]6 |] %18
w: |
V:4
 x2 | x8 | x8 | x8 | x8 | x8 | x8 | x8 | x6 || x2 | x2 A,>A, A, x3 | x11 | x8 | x8 | x8 | x8 | x8 | %17
 x6 |] %18

